X:4
T:Nightingale. Instr:Theorbo
C:Achazia Songweaver.
c:2008
N:Bass
Q:1/4=90
V:1
M:4/4
L:1/8
K:C
z8 |z8 |A2 A4 G2 |A2 A4 z A |C2 C3 z2 C |D2 D2 z3 D |A2 A3 A G2 |A2 A2 z3 A |C2 C3 z2 C |D2 D3 z2 D |A2 A2 z3 A |A2 A2 z3 A |G2 G3 z2 G |D2 D2 z3 D |C3 C _B3 B |A3 A G3 G |F3 F FG AA-|AG G2
z3 G |A2 A2 z4 |
A2 A2 z3 A |F3 F FG AA-|AG G2 z3 G |A2 A2 z4 |A2 A2 z3 A |F3 F FG AA-|AG G2 z3 G |A2 A2 z4 |A2 A2 z3 A |F3 F FG AA-|AG G2 z4 |A2 A2 z3 A |G3 A2 A2 A |A2 A3 z2 A |G2 A4 G2 |A2 A4 z A |C2 C3 z2
C |D2 D2 z3 D |
A2 A3 A G2 |A2 A2 z3 A |C2 C3 z2 C |D2 D3 z2 D |A2 A2 z3 A |A2 A2 z3 A |G2 G3 z2 G |D2 D2 z3 D |C3 C _B3 B |A3 A G3 G |F3 F FG AA-|AG G2 z3 G |A2 A2 z4 |A2 A2 z3 A |F3 F FG AA-|AG G2 z3 G |A2
A2 z4 |
A2 A2 z3 A |F3 F FG AA-|AG G2 z3 G |A2 A2 z4 |A2 A2 z3 A |F3 F FG AA-|AG G2 z4 |A2 A2 z4 |A2 A4 z2 |]
